X:12
M:4/4
L:1/2
Q:1/4=120
K:Gmin
V:1
BG|^FA|GG|"^HC"^F2|GA|BA|BA|"^AC"G2||
w:...C ...P ...C ...C ...O ...C ...C ...C ...C ...C ...P ...O ...S      .
V:2
G,,B,,|A,,^F,,|G,,C,|D,2|B,,A,,|G,,C,|D,D,|G,,2||
w:g:~i i6 V4/3 V6/5 i iv V i6 viid6 i iid6/5 cad6/4 V7 i

